X: 1921
T: Sirapsbacken
M: 3/4
L: 1/8
K: G
O:Hällnäs, Västerbotten
S:Nils Jonsson
Z:Egentligen i D-dur
d>B G>B d>g | f>e A2 A2 | A>B c>d e>f | g>d B2 B2 | d>B G>B d>g |
f>e A2 A2 | A>B c>d e>f | g2 g4 :|
d>g b2 a2|e>g c'2 b2 | ((3aba) f>d e>f | g>d B>A G2 |
d>g b2 a2|e>g c'2 b2 | ((3aba) f>d e>f | g2 g4  :|

(:musicend:)

(:music:)
